T: You Don't Know What You've Got Till It's Gone
M: 4/4
L: 1/8
K: Gmaj
|: Bc |d2- de dc Bc | d2 G2 G2 Bc | d2 de dc Bd | c2 A^G A2 AB |
cB AB cB A2 | cB AB c2 e2 | d2 de dc BA | B2 G2 G2 :|
|: d/e/f |g2 d2 gf ef | g2 B2 B2 d/e/f | g2 d2 gf ed | f2 A2 A2 AB |
cB AB c2 A2 | cB AB c2 e2 | d2 g2 ed cB | d2 G2 G2 :|
